X:1
T:Columbia Heights, 87.87 D
T:Columbia Heights, 87.87 D
T:Adam Geibel, 1885
T:Public Domain Courtesy of the Cyber Hymnal™
C:Adam Geibel, 1885
Z:Public Domain
Z:Courtesy of the Cyber Hymnal™
%%score ( 1 2 ) ( 3 4 )
L:1/8
Q:1/4=95
M:3/4
K:C
V:1 treble 
V:2 treble 
V:3 bass 
V:4 bass 
V:1
 [EG]>[EG] | [EA]2 [EG]2 [Ec]>G | [GB]2 [FA]2 [FA][GA] | [Af]3 [Ae] [Ad]A | (c2 B2) [FG]>[FG] | %5
 [EA]2 [EG]2 [Ec]>G | [GB]2 [FA]2 [Ad][Ae] | [Af][Ad] [FA]2 [GB]2 | [Gc]4 [Gd][Ge] | %9
 [Gf]3 [Gd] [GB]>[FG] | [EA]2 [EG]2 cd | ed cB A[^DG] | [E^G]4 [F=G]>[FG] | [EA]2 [EG]2 [Ec]>G | %14
 [G_B]2 [FA]2 [Ad][Ae] | [Ag][Af] [FA]2 [GB]2 | [Gc]4 |] %17
V:2
 x2 | x11/2 G/ | x6 | x5 A | G4 x2 | x11/2 G/ | x6 | x6 | x6 | x6 | x4 cd | (e^d) (cB) A x | x6 | %13
 x11/2 G/ | x6 | x6 | x4 |] %17
V:3
 [C,C]>[C,C] | [C,C]2 [C,C]2 [C,C]>[E,C] | [F,C]2 [F,C]2 [F,C][E,^C] | [D,D]3 [E,^C] [F,D][^F,_E] | %4
 (E2 D2) [G,B,]>[G,B,] | [C,C]2 [C,C]2 [C,C]>[E,C] | [F,C]2 [F,C]2 [F,D][E,^C] | %7
 [D,D][F,D] [G,D]2 [G,F]2 | [C,E]4 [G,B,][G,C] | [G,D]3 [G,B,] [G,D]>[G,B,] | [C,C]2 [C,C]2 CD | %11
 (ED) CB, A,[F,A,] | [E,B,]4 [D,B,]>[D,B,] | [C,C]2 [C,C]2 [C,C]>[E,C] | %14
 [F,C]2 [F,C]2 [F,D][E,^C] | [D,D][F,D] [G,D]2 [G,F]2 | [C,E]4 |] %17
V:4
 x2 | x6 | x6 | x6 | G,4 x2 | x6 | x6 | x6 | x6 | x6 | x4 C x | ED (CB,) A, x | x6 | x6 | x6 | x6 | %16
 x4 |] %17

